images/prologue/png/third_step.svg

<svg width="91" height="75" viewBox="0 0 91 75" fill="none" xmlns="http://www.w3.org/2000/svg">
<g clip-path="url(#clip0_3813_1573)">
<path d="M7.06452 2.33002V1.15997H0.963481V2.33002H3.4251V10H4.6029V2.33002H7.06452ZM10.4734 0.900024V10H11.6512V4.66998H14.2423V10H15.4201V3.5H11.6512V0.900024H10.4734ZM21.8279 10.13C22.2754 10.13 22.6052 10.13 23.5239 9.87V8.72601C22.7583 8.96001 22.299 8.96002 21.8279 8.96002C20.4498 8.96002 20.12 8.24502 20.0376 7.33502H23.9244V6.62C23.9244 4.579 23.1941 3.37 21.3803 3.37C19.5665 3.37 18.8362 4.709 18.8362 6.75C18.8362 8.037 19.166 10.13 21.8279 10.13ZM20.014 6.16498C20.0729 5.11198 20.4734 4.53998 21.3803 4.53998C22.3343 4.53998 22.723 5.03398 22.7466 6.16498H20.014ZM35.1116 8.83002V6.03497H38.1504V4.86499H35.1116V2.33002H39.0926V1.15997H33.9338V10H39.0926V8.83002H35.1116ZM46.0722 4.66998V3.5H42.633V10H43.8108V4.66998H46.0722ZM51.0135 10.13C51.838 10.13 52.2973 9.86998 52.6507 9.34998V10H54.5352V8.70001H53.8285V3.5H49.5884V4.66998H52.6507V6.35999C52.2973 5.83999 51.838 5.58002 51.0135 5.58002C49.5766 5.58002 48.9053 6.72398 48.9053 7.85498C48.9053 8.98598 49.5766 10.13 51.0135 10.13ZM51.3669 8.96002C50.5071 8.96002 50.0831 8.50498 50.0831 7.85498C50.0831 7.20498 50.5071 6.75 51.3669 6.75C52.2267 6.75 52.6507 7.20498 52.6507 7.85498C52.6507 8.50498 52.2267 8.96002 51.3669 8.96002ZM3.66066 30.13C5.45092 30.13 6.47561 28.791 6.47561 26.75C6.47561 24.709 5.45092 23.37 3.66066 23.37C1.87039 23.37 0.845703 24.709 0.845703 26.75C0.845703 28.791 1.87039 30.13 3.66066 30.13ZM3.66066 28.96C2.44752 28.96 2.02351 28.44 2.02351 26.75C2.02351 25.06 2.44752 24.54 3.66066 24.54C4.8738 24.54 5.29781 25.06 5.29781 26.75C5.29781 28.44 4.8738 28.96 3.66066 28.96ZM13.0987 24.67V23.5H11.4262V22.07H13.0987V20.9H10.2484V23.5H9.30616V24.67H10.2484V30H11.4262V24.67H13.0987ZM24.9885 28.83V24.67H26.5432V23.5H24.9885V20.9H23.8107V23.5H22.8684V24.67H23.8107V30H26.5432V28.83H24.9885ZM30.1956 20.9V30H31.3734V24.67H33.9646V30H35.1424V23.5H31.3734V20.9H30.1956ZM41.5501 30.13C41.9977 30.13 42.3275 30.13 43.2462 29.87V28.726C42.4806 28.96 42.0213 28.96 41.5501 28.96C40.1721 28.96 39.8423 28.245 39.7599 27.335H43.6466V26.62C43.6466 24.579 42.9164 23.37 41.1026 23.37C39.2888 23.37 38.5585 24.709 38.5585 26.75C38.5585 28.037 38.8883 30.13 41.5501 30.13ZM39.7363 26.165C39.7952 25.112 40.1957 24.54 41.1026 24.54C42.0566 24.54 42.4453 25.034 42.4688 26.165H39.7363ZM56.8597 30.13C58.3202 30.13 58.7795 29.272 58.9915 28.765H59.18V30H60.3575V25.593H56.0941V26.763H59.18C59.0622 27.907 58.4615 28.96 57.0953 28.96C55.3992 28.96 54.5983 28.063 54.5983 25.58C54.5983 23.097 55.2815 22.2 56.9775 22.2C58.3438 22.2 58.862 22.993 58.9562 24.137H60.122C60.0042 22.317 58.9327 21.03 56.9775 21.03C54.4099 21.03 53.4205 23.24 53.4205 25.58C53.4205 27.92 54.4099 30.13 56.8597 30.13ZM67.3356 24.67V23.5H63.8964V30H65.0742V24.67H67.3356ZM73.2183 30.13C73.6658 30.13 73.9956 30.13 74.9143 29.87V28.726C74.1487 28.96 73.6894 28.96 73.2183 28.96C71.8402 28.96 71.5105 28.245 71.428 27.335H75.3148V26.62C75.3148 24.579 74.5845 23.37 72.7707 23.37C70.9569 23.37 70.2266 24.709 70.2266 26.75C70.2266 28.037 70.5564 30.13 73.2183 30.13ZM71.4044 26.165C71.4633 25.112 71.8638 24.54 72.7707 24.54C73.7247 24.54 74.1134 25.034 74.137 26.165H71.4044ZM80.4844 30.13C81.3089 30.13 81.7682 29.87 82.1216 29.35V30H84.0061V28.7H83.2994V23.5H79.0593V24.67H82.1216V26.36C81.7682 25.84 81.3089 25.58 80.4844 25.58C79.0475 25.58 78.3762 26.724 78.3762 27.855C78.3762 28.986 79.0475 30.13 80.4844 30.13ZM80.8378 28.96C79.978 28.96 79.554 28.505 79.554 27.855C79.554 27.205 79.978 26.75 80.8378 26.75C81.6976 26.75 82.1216 27.205 82.1216 27.855C82.1216 28.505 81.6976 28.96 80.8378 28.96ZM88.8305 28.83V24.67H90.3853V23.5H88.8305V20.9H87.6527V23.5H86.7105V24.67H87.6527V30H90.3853V28.83H88.8305ZM2.25907 48.83V41.16H1.08126V50H5.53337V48.83H2.25907ZM11.6996 50.13C12.1472 50.13 12.477 50.13 13.3957 49.87V48.726C12.6301 48.96 12.1708 48.96 11.6996 48.96C10.3216 48.96 9.99182 48.245 9.90937 47.335H13.7961V46.62C13.7961 44.579 13.0659 43.37 11.2521 43.37C9.43825 43.37 8.70801 44.709 8.70801 46.75C8.70801 48.037 9.0378 50.13 11.6996 50.13ZM9.88582 46.165C9.94471 45.112 10.3452 44.54 11.2521 44.54C12.2061 44.54 12.5948 45.034 12.6183 46.165H9.88582ZM18.9662 50.13C19.7906 50.13 20.25 49.87 20.6033 49.35V50H22.4878V48.7H21.7811V43.5H17.541V44.67H20.6033V46.36C20.25 45.84 19.7906 45.58 18.9662 45.58C17.5292 45.58 16.8579 46.724 16.8579 47.855C16.8579 48.986 17.5292 50.13 18.9662 50.13ZM19.3195 48.96C18.4597 48.96 18.0357 48.505 18.0357 47.855C18.0357 47.205 18.4597 46.75 19.3195 46.75C20.1793 46.75 20.6033 47.205 20.6033 47.855C20.6033 48.505 20.1793 48.96 19.3195 48.96ZM28.9582 43.37C28.1338 43.37 27.5566 43.721 27.2033 44.28V43.5H26.0255V52.08H27.2033V49.22C27.5566 49.779 28.1338 50.13 28.9582 50.13C30.8663 50.13 31.5376 48.661 31.5376 46.75C31.5376 44.839 30.8663 43.37 28.9582 43.37ZM28.7815 48.96C27.6273 48.96 27.2033 48.31 27.2033 46.75C27.2033 45.19 27.6273 44.54 28.7815 44.54C29.9358 44.54 30.3598 45.19 30.3598 46.75C30.3598 48.31 29.9358 48.96 28.7815 48.96Z" fill="#FFA753"/>
<path d="M2.73058 72.83L4.56796 70.867C5.59265 69.775 6.12266 69.021 6.12266 67.76C6.12266 66.499 5.45131 65.03 3.54327 65.03C1.63522 65.03 0.963867 66.499 0.963867 68.15H2.14168C2.14168 66.85 2.56569 66.2 3.54327 66.2C4.52085 66.2 4.94486 66.785 4.94486 67.695C4.94486 68.644 4.47374 69.216 3.41371 70.308L0.963867 72.83V74H6.00489V72.83H2.73058ZM12.11 74.13C14.1358 74.13 14.8072 72.661 14.8072 71.27C14.8072 69.489 13.7118 68.67 12.2396 68.93L14.5716 66.33V65.16H9.76617V66.33H13.0169L10.9322 68.67L11.4033 69.84H12.2867C13.0287 69.84 13.6294 70.165 13.6294 71.27C13.6294 72.31 13.2054 72.96 12.11 72.96C11.0146 72.96 10.5906 72.31 10.5906 71.27H9.41282C9.41282 72.661 10.0842 74.13 12.11 74.13ZM21.5484 65.03C19.0986 65.03 18.3448 67.11 18.3448 69.58C18.3448 72.05 19.0986 74.13 21.5484 74.13C23.9982 74.13 24.752 72.05 24.752 69.58C24.752 67.11 23.9982 65.03 21.5484 65.03ZM23.5742 69.58C23.5742 70.308 23.5271 70.906 23.4211 71.387L20.3235 66.551C20.6297 66.317 21.0302 66.2 21.5484 66.2C23.1149 66.2 23.5742 67.227 23.5742 69.58ZM19.5226 69.58C19.5226 68.865 19.5697 68.267 19.6639 67.786L22.7616 72.609C22.4671 72.843 22.0666 72.96 21.5484 72.96C19.9701 72.96 19.5226 71.933 19.5226 69.58ZM31.3776 65.03C28.9277 65.03 28.1739 67.11 28.1739 69.58C28.1739 72.05 28.9277 74.13 31.3776 74.13C33.8274 74.13 34.5812 72.05 34.5812 69.58C34.5812 67.11 33.8274 65.03 31.3776 65.03ZM33.4034 69.58C33.4034 70.308 33.3563 70.906 33.2503 71.387L30.1527 66.551C30.4589 66.317 30.8593 66.2 31.3776 66.2C32.9441 66.2 33.4034 67.227 33.4034 69.58ZM29.3517 69.58C29.3517 68.865 29.3989 68.267 29.4931 67.786L32.5907 72.609C32.2963 72.843 31.8958 72.96 31.3776 72.96C29.7993 72.96 29.3517 71.933 29.3517 69.58ZM38.2332 69.502V70.672H42.3791V69.502H38.2332ZM47.7932 72.83L49.6306 70.867C50.6553 69.775 51.1853 69.021 51.1853 67.76C51.1853 66.499 50.514 65.03 48.6059 65.03C46.6979 65.03 46.0265 66.499 46.0265 68.15H47.2043C47.2043 66.85 47.6283 66.2 48.6059 66.2C49.5835 66.2 50.0075 66.785 50.0075 67.695C50.0075 68.644 49.5364 69.216 48.4764 70.308L46.0265 72.83V74H51.0675V72.83H47.7932ZM57.1726 74.13C59.1985 74.13 59.8696 72.661 59.8696 71.27C59.8696 69.489 58.7745 68.67 57.3022 68.93L59.6341 66.33V65.16H54.8288V66.33H58.0796L55.9948 68.67L56.466 69.84H57.3493C58.0913 69.84 58.692 70.165 58.692 71.27C58.692 72.31 58.268 72.96 57.1726 72.96C56.0773 72.96 55.6533 72.31 55.6533 71.27H54.4755C54.4755 72.661 55.1468 74.13 57.1726 74.13ZM66.3168 74.13C68.59 74.13 69.226 72.83 69.226 71.66C69.226 70.542 68.908 69.684 67.471 69.294V69.086C68.4957 68.696 68.7548 68.124 68.7548 67.24C68.7548 66.07 68.1188 65.03 66.3168 65.03C64.5147 65.03 63.8787 66.07 63.8787 67.24C63.8787 68.124 64.1378 68.696 65.1625 69.086V69.294C63.7256 69.684 63.4076 70.529 63.4076 71.66C63.4076 72.83 64.0436 74.13 66.3168 74.13ZM66.3168 68.605C65.3863 68.605 65.0565 68.098 65.0565 67.435C65.0565 66.642 65.3863 66.2 66.3168 66.2C67.2355 66.2 67.577 66.642 67.577 67.435C67.577 68.098 67.2355 68.605 66.3168 68.605ZM66.3168 72.96C64.9152 72.96 64.5854 72.258 64.5854 71.335C64.5854 70.412 64.9152 69.775 66.3168 69.775C67.7066 69.775 68.0482 70.412 68.0482 71.335C68.0482 72.258 67.7066 72.96 66.3168 72.96ZM75.6414 65.03C72.9795 65.03 72.6498 67.383 72.6498 68.67V70.36C72.6498 72.648 73.38 74.13 75.4647 74.13C77.5494 74.13 78.2797 72.661 78.2797 71.01C78.2797 69.359 77.5494 67.89 75.6414 67.89C74.8169 67.89 74.1809 68.371 73.8276 68.8C73.8276 67.643 73.8629 66.2 75.6414 66.2C76.1125 66.2 76.6896 66.2 77.4552 66.434V65.29C76.5365 65.03 76.089 65.03 75.6414 65.03ZM75.4647 69.047C76.619 69.047 77.1019 69.71 77.1019 71.01C77.1019 72.31 76.619 72.96 75.4647 72.96C74.3105 72.96 73.8276 71.92 73.8276 70.88C73.8276 69.71 74.3105 69.047 75.4647 69.047Z" fill="white" fill-opacity="0.33"/>
</g>
<defs>
<clipPath id="clip0_3813_1573">
<rect width="91" height="75" fill="white"/>
</clipPath>
</defs>
</svg>

<svg xmlns="http://www.w3.org/2000/svg" width="91" height="75" fill="none"><g clip-path="url(#a)"><path fill="#FFA753" d="M7.065 2.33V1.16H.963v1.17h2.462V10h1.178V2.33h2.462ZM10.473.9V10h1.178V4.67h2.591V10h1.178V3.5h-3.769V.9h-1.178Zm11.355 9.23c.447 0 .777 0 1.696-.26V8.726c-.766.234-1.225.234-1.696.234-1.378 0-1.708-.715-1.79-1.625h3.886V6.62c0-2.041-.73-3.25-2.544-3.25-1.813 0-2.544 1.339-2.544 3.38 0 1.287.33 3.38 2.992 3.38Zm-1.814-3.965c.059-1.053.46-1.625 1.366-1.625.954 0 1.343.494 1.367 1.625h-2.733ZM35.112 8.83V6.035h3.038v-1.17h-3.038V2.33h3.98V1.16h-5.158V10h5.159V8.83h-3.981Zm10.96-4.16V3.5h-3.439V10h1.178V4.67h2.261Zm4.941 5.46c.825 0 1.284-.26 1.638-.78V10h1.884V8.7h-.706V3.5h-4.24v1.17h3.062v1.69c-.354-.52-.813-.78-1.638-.78-1.436 0-2.108 1.144-2.108 2.275s.672 2.275 2.108 2.275Zm.354-1.17c-.86 0-1.284-.455-1.284-1.105 0-.65.424-1.105 1.284-1.105.86 0 1.284.455 1.284 1.105 0 .65-.424 1.105-1.284 1.105ZM3.66 30.13c1.79 0 2.815-1.339 2.815-3.38S5.45 23.37 3.66 23.37.846 24.709.846 26.75s1.024 3.38 2.815 3.38Zm0-1.17c-1.213 0-1.637-.52-1.637-2.21s.424-2.21 1.637-2.21 1.637.52 1.637 2.21-.424 2.21-1.637 2.21Zm9.438-4.29V23.5h-1.673v-1.43H13.1V20.9h-2.85v2.6h-.943v1.17h.942V30h1.178v-5.33H13.1Zm11.89 4.16v-4.16h1.554V23.5h-1.555v-2.6h-1.177v2.6h-.943v1.17h.943V30h2.732v-1.17h-1.555Zm5.207-7.93V30h1.177v-5.33h2.592V30h1.177v-6.5h-3.769v-2.6h-1.177Zm11.354 9.23c.448 0 .778 0 1.696-.26v-1.144c-.765.234-1.225.234-1.696.234-1.378 0-1.708-.715-1.79-1.625h3.887v-.715c0-2.041-.73-3.25-2.544-3.25s-2.544 1.339-2.544 3.38c0 1.287.33 3.38 2.991 3.38Zm-1.814-3.965c.06-1.053.46-1.625 1.367-1.625.954 0 1.342.494 1.366 1.625h-2.733ZM56.86 30.13c1.46 0 1.92-.858 2.132-1.365h.188V30h1.178v-4.407h-4.264v1.17h3.086c-.118 1.144-.718 2.197-2.085 2.197-1.696 0-2.497-.897-2.497-3.38 0-2.483.684-3.38 2.38-3.38 1.366 0 1.884.793 1.978 1.937h1.166c-.118-1.82-1.19-3.107-3.145-3.107-2.567 0-3.556 2.21-3.556 4.55s.989 4.55 3.439 4.55Zm10.476-5.46V23.5h-3.44V30h1.178v-5.33h2.262Zm5.882 5.46c.448 0 .778 0 1.696-.26v-1.144c-.765.234-1.225.234-1.696.234-1.378 0-1.708-.715-1.79-1.625h3.887v-.715c0-2.041-.73-3.25-2.544-3.25s-2.544 1.339-2.544 3.38c0 1.287.33 3.38 2.991 3.38Zm-1.814-3.965c.06-1.053.46-1.625 1.367-1.625.954 0 1.342.494 1.366 1.625h-2.733Zm9.08 3.965c.825 0 1.284-.26 1.638-.78V30h1.884v-1.3H83.3v-5.2h-4.24v1.17h3.063v1.69c-.354-.52-.813-.78-1.638-.78-1.436 0-2.108 1.144-2.108 2.275s.671 2.275 2.108 2.275Zm.354-1.17c-.86 0-1.284-.455-1.284-1.105 0-.65.424-1.105 1.284-1.105.86 0 1.284.455 1.284 1.105 0 .65-.424 1.105-1.284 1.105Zm7.993-.13v-4.16h1.554V23.5H88.83v-2.6h-1.177v2.6h-.943v1.17h.943V30h2.732v-1.17H88.83Zm-86.572 20v-7.67H1.081V50h4.452v-1.17H2.26Zm9.44 1.3c.448 0 .778 0 1.697-.26v-1.144c-.766.234-1.225.234-1.696.234-1.378 0-1.708-.715-1.79-1.625h3.886v-.715c0-2.041-.73-3.25-2.544-3.25s-2.544 1.339-2.544 3.38c0 1.287.33 3.38 2.992 3.38Zm-1.813-3.965c.059-1.053.46-1.625 1.366-1.625.954 0 1.343.494 1.366 1.625H9.886Zm9.08 3.965c.825 0 1.284-.26 1.637-.78V50h1.885v-1.3h-.707v-5.2h-4.24v1.17h3.062v1.69c-.353-.52-.812-.78-1.637-.78-1.437 0-2.108 1.144-2.108 2.275s.671 2.275 2.108 2.275Zm.354-1.17c-.86 0-1.284-.455-1.284-1.105 0-.65.424-1.105 1.284-1.105.86 0 1.283.455 1.283 1.105 0 .65-.424 1.105-1.284 1.105Zm9.638-5.59c-.824 0-1.401.351-1.755.91v-.78h-1.177v8.58h1.177v-2.86c.354.559.93.91 1.755.91 1.908 0 2.58-1.469 2.58-3.38 0-1.911-.672-3.38-2.58-3.38Zm-.176 5.59c-1.155 0-1.579-.65-1.579-2.21s.424-2.21 1.579-2.21c1.154 0 1.578.65 1.578 2.21s-.424 2.21-1.578 2.21Z"/><path fill="#fff" fill-opacity=".33" d="m2.73 72.83 1.838-1.963c1.025-1.092 1.555-1.846 1.555-3.107 0-1.261-.672-2.73-2.58-2.73s-2.58 1.469-2.58 3.12h1.179c0-1.3.424-1.95 1.401-1.95.978 0 1.402.585 1.402 1.495 0 .949-.471 1.521-1.531 2.613L.964 72.83V74h5.04v-1.17H2.732Zm9.38 1.3c2.026 0 2.697-1.469 2.697-2.86 0-1.781-1.095-2.6-2.567-2.34l2.332-2.6v-1.17H9.766v1.17h3.25l-2.084 2.34.471 1.17h.884c.742 0 1.342.325 1.342 1.43 0 1.04-.424 1.69-1.519 1.69s-1.52-.65-1.52-1.69H9.414c0 1.391.671 2.86 2.697 2.86Zm9.438-9.1c-2.45 0-3.203 2.08-3.203 4.55 0 2.47.754 4.55 3.203 4.55 2.45 0 3.204-2.08 3.204-4.55 0-2.47-.754-4.55-3.204-4.55Zm2.026 4.55c0 .728-.047 1.326-.153 1.807l-3.098-4.836c.307-.234.707-.351 1.225-.351 1.567 0 2.026 1.027 2.026 3.38Zm-4.051 0c0-.715.047-1.313.14-1.794l3.099 4.823c-.295.234-.695.351-1.214.351-1.578 0-2.025-1.027-2.025-3.38Zm11.855-4.55c-2.45 0-3.204 2.08-3.204 4.55 0 2.47.754 4.55 3.204 4.55s3.203-2.08 3.203-4.55c0-2.47-.754-4.55-3.203-4.55Zm2.025 4.55c0 .728-.047 1.326-.153 1.807l-3.097-4.836c.306-.234.706-.351 1.225-.351 1.566 0 2.025 1.027 2.025 3.38Zm-4.051 0c0-.715.047-1.313.141-1.794l3.098 4.823c-.295.234-.695.351-1.213.351-1.579 0-2.026-1.027-2.026-3.38Zm8.881-.078v1.17h4.146v-1.17h-4.146Zm9.56 3.328 1.838-1.963c1.024-1.092 1.554-1.846 1.554-3.107 0-1.261-.671-2.73-2.58-2.73-1.907 0-2.578 1.469-2.578 3.12h1.177c0-1.3.424-1.95 1.402-1.95.977 0 1.401.585 1.401 1.495 0 .949-.47 1.521-1.53 2.613l-2.45 2.522V74h5.04v-1.17h-3.274Zm9.38 1.3c2.026 0 2.697-1.469 2.697-2.86 0-1.781-1.095-2.6-2.568-2.34l2.332-2.6v-1.17H54.83v1.17h3.25l-2.084 2.34.471 1.17h.883c.742 0 1.343.325 1.343 1.43 0 1.04-.424 1.69-1.52 1.69-1.095 0-1.519-.65-1.519-1.69h-1.178c0 1.391.672 2.86 2.698 2.86Zm9.144 0c2.273 0 2.909-1.3 2.909-2.47 0-1.118-.318-1.976-1.755-2.366v-.208c1.025-.39 1.284-.962 1.284-1.846 0-1.17-.636-2.21-2.438-2.21s-2.438 1.04-2.438 2.21c0 .884.259 1.456 1.283 1.846v.208c-1.436.39-1.754 1.235-1.754 2.366 0 1.17.636 2.47 2.909 2.47Zm0-5.525c-.93 0-1.26-.507-1.26-1.17 0-.793.33-1.235 1.26-1.235.919 0 1.26.442 1.26 1.235 0 .663-.341 1.17-1.26 1.17Zm0 4.355c-1.402 0-1.732-.702-1.732-1.625s.33-1.56 1.732-1.56c1.39 0 1.731.637 1.731 1.56s-.341 1.625-1.731 1.625Zm9.324-7.93c-2.662 0-2.991 2.353-2.991 3.64v1.69c0 2.288.73 3.77 2.815 3.77 2.084 0 2.815-1.469 2.815-3.12s-.73-3.12-2.639-3.12c-.824 0-1.46.481-1.813.91 0-1.157.035-2.6 1.813-2.6.471 0 1.049 0 1.814.234V65.29c-.918-.26-1.366-.26-1.814-.26Zm-.176 4.017c1.154 0 1.637.663 1.637 1.963s-.483 1.95-1.637 1.95-1.637-1.04-1.637-2.08c0-1.17.483-1.833 1.637-1.833Z"/></g><defs><clipPath id="a"><path fill="#fff" d="M0 0h91v75H0z"/></clipPath></defs></svg>
